X:147
T:Mist on the Meadows
T:Thrush in the Straw, The
R:jig
Z:id:hn-jig-147
M:6/8
K:G
f|gdB BAB|GBA GBd|gdB BAB|GBd e2f|gdB BAB|GBA GBd|gfe fdB|ABd e2:|
|:f|~g3 bge|~f3 afd|~g3 bge|edB GBd|~g3 bge|~f3 afd|gfe fdB|ABd e2:|
P:variations
|:f|gBB BAB|G2F GBd|gdB dBA|GBd e2f|gBB BAB|GAG GBd|gfe fdB|ABd e2:|
|:f|gfg bag|fdf afd|g2g bag|afd e2f|g2g bag|fdf afd|gfe fdB|ABd e2:|

